svg/black/rhoc.svg

<svg xmlns="http://www.w3.org/2000/svg" width="32" height="32" viewBox="0 0 32 32">
  <path d="M16,32 C7.163444,32 0,24.836556 0,16 C0,7.163444 7.163444,0 16,0 C24.836556,0 32,7.163444 32,16 C32,24.836556 24.836556,32 16,32 Z M11.8163536,9.24048566 C11.1155536,8.3103907 10.0337936,7.63936622 8.85299362,7.59234973 C7.62099362,7.51974603 6.40691362,8.10537321 5.60195362,9.02075552 C4.99139362,9.7244037 4.70083362,10.6562578 4.68995362,11.5783567 C4.68504695,13.3413152 4.68440695,15.1045936 4.68803362,16.8681918 C4.66739362,17.1016751 4.87843362,17.2655931 5.09939362,17.2409654 C10.0913936,17.2547185 15.0851536,17.2249734 20.0765136,17.2569574 C20.0605136,18.3479319 20.0745936,19.4389064 20.1541136,20.5268425 C18.7301136,21.5628045 17.0621136,22.293799 15.3177936,22.5655031 C15.0910736,22.6174772 14.7081936,22.5567075 14.6581136,22.8675921 C14.6365136,23.4532193 14.6561936,24.0409254 14.6493136,24.6267125 C14.6158736,24.8326896 14.7773136,25.0436241 14.9918736,25.0407455 C17.1003536,24.8779469 19.1488336,24.0972173 20.8361936,22.8264927 C21.4601936,23.6368075 22.3507536,24.2755281 23.3801936,24.4295311 C24.8349136,24.6886016 26.3641936,23.9870324 27.2339536,22.8176971 C27.7846736,22.0740689 27.9789136,21.1322997 27.9750736,20.221875 C27.9701136,18.5471923 27.9897936,16.8725096 27.9653136,15.1987865 C27.9840336,14.9328395 27.7336336,14.7975471 27.4971536,14.8181768 C22.5211536,14.8084217 17.5451536,14.8240939 12.5710736,14.8103407 C12.5416336,13.8253932 12.6142736,12.8364477 12.5070736,11.8543787 C12.4958736,11.7176471 12.4638736,11.5311803 12.6078736,11.4501008 C14.1323536,10.4082218 15.8864336,9.65371904 17.7317136,9.44966107 C17.9320336,9.44470355 18.0241936,9.21905637 18.0104336,9.04554313 C18.0104336,8.48582299 18.0241936,7.92418381 18.0035536,7.36494343 C18.0113936,7.13146017 17.7806736,6.99712734 17.5686736,7.03918631 C15.4934736,7.20870155 13.4811536,7.99246967 11.8163536,9.24048566 Z M6.70035362,11.881885 C6.72387362,10.9401158 7.58579362,10.1120499 8.53299362,10.1502708 C9.50275362,10.1315601 10.3763536,10.9852133 10.3950736,11.9514502 C10.4157136,12.9589464 10.4029136,13.9664427 10.4009936,14.9739389 C9.16787362,15.0012853 7.93587362,14.9825746 6.70227362,14.9843337 C6.69651362,13.9494912 6.69843362,12.9154482 6.70035362,11.881885 Z M22.4086736,17.1714002 C23.6406736,17.1694812 24.8726736,17.1645236 26.1046736,17.1742788 C26.1144336,18.1592263 26.1086736,19.1441738 26.1086736,20.1292813 C26.1165136,20.879786 25.6462736,21.6264527 24.9336336,21.8903207 C24.1611536,22.1885716 23.2168336,21.8931993 22.7437136,21.2162578 C22.516218,20.896203 22.3968791,20.511921 22.4030736,20.1193662 C22.4067536,19.1372973 22.3998736,18.1544287 22.4086736,17.1714002 Z"/>
</svg>

<svg xmlns="http://www.w3.org/2000/svg" width="32" height="32"><path d="M16 32C7.163 32 0 24.837 0 16S7.163 0 16 0s16 7.163 16 16-7.163 16-16 16zM11.816 9.24c-.7-.93-1.782-1.6-2.963-1.648-1.232-.072-2.446.513-3.251 1.429-.61.703-.901 1.635-.912 2.557-.005 1.763-.006 3.527-.002 5.29-.02.234.19.398.411.373 4.992.014 9.986-.016 14.978.016a37.333 37.333 0 0 0 .077 3.27c-1.424 1.036-3.092 1.767-4.836 2.039-.227.051-.61-.01-.66.302-.021.585-.002 1.173-.009 1.759-.033.206.128.417.343.414a11.207 11.207 0 0 0 5.844-2.215c.624.81 1.515 1.45 2.544 1.604 1.455.259 2.984-.443 3.854-1.612.55-.744.745-1.686.741-2.596-.005-1.675.015-3.35-.01-5.023.019-.266-.231-.401-.468-.38-4.976-.01-9.952.005-14.926-.009-.03-.985.043-1.974-.064-2.956-.011-.136-.043-.323.1-.404 1.525-1.042 3.28-1.796 5.125-2 .2-.005.292-.23.278-.404 0-.56.014-1.122-.006-1.681.007-.234-.223-.368-.435-.326-2.076.17-4.088.953-5.753 2.201zM6.7 11.882c.024-.942.886-1.77 1.833-1.732.97-.018 1.843.835 1.862 1.801.02 1.008.008 2.015.006 3.023-1.233.027-2.465.009-3.699.01a417.805 417.805 0 0 1-.002-3.102zm15.709 5.29c1.232-.003 2.464-.007 3.696.002.01.985.004 1.97.004 2.955.008.75-.463 1.497-1.175 1.761-.773.299-1.717.003-2.19-.674a1.843 1.843 0 0 1-.34-1.097c.003-.982-.004-1.965.005-2.948z"/></svg>
